static/icons/tags.svg

<svg xmlns="http://www.w3.org/2000/svg" width="24" height="24" viewBox="0 0 24 24">
  <path fill-rule="evenodd" d="M7.77461822,8.69615587 C7.77461822,8.09794629 7.29436546,7.61769352 6.69615587,7.61769352 C6.09794629,7.61769352 5.61769352,8.09794629 5.61769352,8.69615587 C5.61769352,9.29436546 6.09794629,9.77461822 6.69615587,9.77461822 C7.29436546,9.77461822 7.77461822,9.29436546 7.77461822,8.69615587 Z M16.764613,13.5492364 C16.764613,13.835703 16.6466561,14.1137441 16.4528699,14.3075303 L12.3159558,18.4528699 C12.1137441,18.6466561 11.835703,18.764613 11.5492364,18.764613 C11.2627699,18.764613 10.9847288,18.6466561 10.7909426,18.4528699 L4.76671933,12.4202212 C4.33701948,11.9989468 4,11.1816746 4,10.583465 L4,7.07846235 C4,6.48867825 4.48867825,6 5.07846235,6 L8.58346498,6 C9.18167457,6 9.99894681,6.33701948 10.4286467,6.76671933 L16.4528699,12.7825171 C16.6466561,12.9847288 16.764613,13.2627699 16.764613,13.5492364 Z M20,13.5492364 C20,13.835703 19.8820432,14.1137441 19.688257,14.3075303 L15.5513428,18.4528699 C15.3491311,18.6466561 15.07109,18.764613 14.7846235,18.764613 C14.3464982,18.764613 14.1274355,18.5624013 13.8409689,18.2675092 L17.8009479,14.3075303 C17.9947341,14.1137441 18.1126909,13.835703 18.1126909,13.5492364 C18.1126909,13.2627699 17.9947341,12.9847288 17.8009479,12.7825171 L11.7767246,6.76671933 C11.3470247,6.33701948 10.5297525,6 9.93154292,6 L11.818852,6 C12.4170616,6 13.2343339,6.33701948 13.6640337,6.76671933 L19.688257,12.7825171 C19.8820432,12.9847288 20,13.2627699 20,13.5492364 Z"/>
</svg>

<svg xmlns="http://www.w3.org/2000/svg" width="24" height="24">
    <path fill-rule="evenodd" d="M7.775 8.696c0-.598-.48-1.078-1.079-1.078-.598 0-1.078.48-1.078 1.078 0 .598.48 1.079 1.078 1.079.598 0 1.079-.48 1.079-1.079zm8.99 4.853c0 .287-.118.565-.312.759l-4.137 4.145a1.085 1.085 0 0 1-1.525 0L4.767 12.42C4.337 12 4 11.182 4 10.583V7.078C4 6.488 4.489 6 5.078 6h3.505c.599 0 1.416.337 1.846.767l6.024 6.016c.194.202.312.48.312.766zm3.235 0c0 .287-.118.565-.312.759l-4.137 4.145a1.12 1.12 0 0 1-.766.312c-.439 0-.658-.203-.944-.497l3.96-3.96a1.085 1.085 0 0 0 0-1.525l-6.024-6.016C11.347 6.337 10.53 6 9.932 6h1.887c.598 0 1.415.337 1.845.767l6.024 6.016c.194.202.312.48.312.766z"/>
</svg>
